-----BEGIN PGP PUBLIC KEY BLOCK-----

mQINBGpu3v0BEACp2NANpysy7FgZl7y62sqHjK5lnIbnOu8fiZ2J1X2thmFUSuks
1YKdZ5OMCAa+0eprnf2njeLGfkvl/yzLqVIXl4D1QSbNSAkaAKysUGbY3yg53ab+
Dn+YlV6VeTOXmQA5JAhjwonYluIqOyZ02G8KRnB37MY8Ln0KlfHyvUn/fOwXdHJ/
wWw0qPpRZeLbYnoo6FOP/zmhB3PnTiWWXKo5ol4vxfS2gOzhb2Gt/AXcuUy+Lggp
O9S+g5Ydk9rECW9JwMKnQVS7kiysWLkqNhG7Xeg/PuuSStqkbOpjJu62ze3XUxZ1
kVQ03muQaPS6CjxpMCVRwsf07cewHTGz+U7u+dalV9YMIBIOvDYAiGopmYFtWxDB
Xs+Dg4Xi7oKlyS/NCUBzI5ALYu+L9EChLCsXBfnFfA32dPsyesGe6b8MImnoirNb
G+Y5HaCQuR7dFFtQ40N9MnehRhQOdBKgePzpa7fHwBhoak9Ts924Py8xUKYpC7KO
lzrDy55zz61tnDqdWjuwpDF6l1QoBpnDiFTqyojWknyimwTvZ9N9c5fM9psdt9/L
fXS6pWnTeMy21mtIPGNLjmZeIhdMFN/XzlK4RUWdjOSMFsMunXxlyWdEyhBGkN4p
VKl9nTVWXVCdVNNHSxFp7sMr78XVK/3i+ACV0FhcSakFy5NiJ26jiOQClwARAQAB
tDBmYXN0YnVzdGVyIEFQVCBzaWduaW5nIEN5YmVyY2F0QGF6dXJlaGFja2luZy5j
b22JAlQEEwEKAD4WIQRrfp7gq/hZ+gj4tM1+DTLTl/FQ9gUCam7e/QIbAwUJA8Jn
AAULCQgHAgYVCgkICwIEFgIDAQIeAQIXgAAKCRB+DTLTl/FQ9nh/D/45wqcSlbFr
5uI+wLTI8MFfogOX1tUKPaa5IuYBU2dSnhkH37Vsir3rZSv9VnXK3totdsIRX6Ud
nzJtj5lwLRBK3DAla8vE6PAMrIrtj+9nv19ppPYiaOZqWdpdfzAWz9HErl6l7K9P
X6b5idKIHJ7T25DvLRodtKxgIEA6X4gsxXozZ/U25U0D3wmcmZoAhnYN4fnybGBm
oruKOkwCTVsjiEHa7/eQyQwcEIbRwVuj1W0xAqPofqOLlXMT4IenXMW4OnMY1f/7
/8zcJR6j/x41VgBCgnu67zwyQzgAp9bB6R+Mlt6NGse/PeKykxI3x2YiJY0CAMqK
YvoikmHIweNJn2eX49uAj6AqirRtE+moPft5sRK/95WaLH46GqtDK4PNaF2Q4e7e
zpHhvr/kAB3DTL4XedjRpdvp/NfWABM3Qo3ai8NBvs40VT3UzvS2jBrlMMKnspHV
K0mtWZyL1IEOlzzyLAaCVSTJb4qy7P9swK/PLDTRbpGwkB9FgWoh1L8GFCS6mnlW
xXxQmoyZLfwJ6WdYggmVybjYZ4yEn1qEb1n3fy402+xTlUVyg+B4UpIW+yMeoNqa
5RUX/lvlnMEsel9lTGJYyxD8oc1FhHcb3pVBly6V42d0J203ihli4HRB2omSwHjm
Uo1Ryrog9JwRd9t1X/G0wid/fbcqiKOYHg==
=+4Ji
-----END PGP PUBLIC KEY BLOCK-----
